X:2345
T:Arrane ny Seyir 
C:Traditional
O:Isle of Man
Z:Kiaull Vannin 345
M:4/4 
L:1/8 
Q:80 
K:D 
F|Bc dd dB zF|Bc dd dB zF|Bc de fa fB|c2 B2 B3 A|FG B4 z F| 
Bc dd dB zF|Bc dd dB FF|f2 fg fe dc|B4 z A FA|B6 z2|| 
F2 B2 F2 A2|F2 B2 F2 A2|B6 z2|| 

